src/icons/svg/barcode.svg

<?xml version="1.0"?><svg xmlns="http://www.w3.org/2000/svg" width="40" height="40" viewBox="0 0 40 40"><path  d="m1.4 34.3h-1.4v-31.4h1.4v31.4z m1.4 0h-0.7v-31.4h0.7v31.4z m2.1 0h-0.7v-31.4h0.7v31.4z m3.5 0h-0.7v-31.4h0.7v31.4z m3.5 0h-1.4v-31.4h1.4v31.4z m2.8 0h-0.7v-31.4h0.7v31.4z m1.4 0h-0.7v-31.4h0.7v31.4z m1.4 0h-0.6v-31.4h0.6v31.4z m3.6 0h-1.5v-31.4h1.4v31.4z m3.5 0h-1.5v-31.4h1.5v31.4z m2.8 0h-1.4v-31.4h1.4v31.4z m2.8 0h-1.4v-31.4h1.4v31.4z m2.1 0h-1.4v-31.4h1.4v31.4z m4.2 0h-2.1v-31.4h2.1v31.4z m1.4 0h-0.7v-31.4h0.7v31.4z m2.1 0h-1.4v-31.4h1.4v31.4z"></path></svg>

<svg xmlns="http://www.w3.org/2000/svg" width="40" height="40" viewBox="0 0 40 40"><path d="M1.4 34.3H0V2.9h1.4v31.4zm1.4 0h-.7V2.9h.7v31.4zm2.1 0h-.7V2.9h.7v31.4zm3.5 0h-.7V2.9h.7v31.4zm3.5 0h-1.4V2.9h1.4v31.4zm2.8 0H14V2.9h.7v31.4zm1.4 0h-.7V2.9h.7v31.4zm1.4 0h-.6V2.9h.6v31.4zm3.6 0h-1.5V2.9H21v31.4zm3.5 0h-1.5V2.9h1.5v31.4zm2.8 0H26V2.9h1.4v31.4zm2.8 0h-1.4V2.9h1.4v31.4zm2.1 0h-1.4V2.9h1.4v31.4zm4.2 0h-2.1V2.9h2.1v31.4zm1.4 0h-.7V2.9h.7v31.4zm2.1 0h-1.4V2.9H40v31.4z"/></svg>
